X: 29043
T: Needle Case
R: polka
M: 2/4
K: Dmajor
ag f/e/d|B g3|ag f/e/d|B/A/B/c/ d2|
ag f/e/d|B g3|Ac e/c/B/A/|Bc d2:|
DF Ad|BB/A/ Bd|DF Ad|B/A/B/c/ d2|
DF Ad|BB/A/ Bd|Ac e/c/B/A/|Bc d2:|

